bernoullicharts/pow_x_2_1__bound.svg

<?xml version="1.0" encoding="utf-8" standalone="no"?>
<!DOCTYPE svg PUBLIC "-//W3C//DTD SVG 1.1//EN"
  "http://www.w3.org/Graphics/SVG/1.1/DTD/svg11.dtd">
<!-- Created with matplotlib (https://matplotlib.org/) -->
<svg height="345.6pt" version="1.1" viewBox="0 0 460.8 345.6" width="460.8pt" xmlns="http://www.w3.org/2000/svg" xmlns:xlink="http://www.w3.org/1999/xlink">
 <defs>
  <style type="text/css">
*{stroke-linecap:butt;stroke-linejoin:round;}
  </style>
 </defs>
 <g id="figure_1">
  <g id="patch_1">
   <path d="M 0 345.6 
L 460.8 345.6 
L 460.8 0 
L 0 0 
z
" style="fill:#ffffff;"/>
  </g>
  <g id="axes_1">
   <g id="patch_2">
    <path d="M 57.6 307.584 
L 414.72 307.584 
L 414.72 41.472 
L 57.6 41.472 
z
" style="fill:#ffffff;"/>
   </g>
   <g id="matplotlib.axis_1">
    <g id="xtick_1">
     <g id="line2d_1">
      <defs>
       <path d="M 0 0 
L 0 3.5 
" id="m33cafdde66" style="stroke:#000000;stroke-width:0.8;"/>
      </defs>
      <g>
       <use style="stroke:#000000;stroke-width:0.8;" x="73.800255" xlink:href="#m33cafdde66" y="307.584"/>
      </g>
     </g>
     <g id="text_1">
      <text style="font-family:DejaVu Sans;font-size:10px;font-style:normal;font-weight:normal;text-anchor:middle;" transform="rotate(-0, 73.800255, 322.182437)" x="73.800255" y="322.182437">0.0</text>
     </g>
    </g>
    <g id="xtick_2">
     <g id="line2d_2">
      <g>
       <use style="stroke:#000000;stroke-width:0.8;" x="138.744153" xlink:href="#m33cafdde66" y="307.584"/>
      </g>
     </g>
     <g id="text_2">
      <text style="font-family:DejaVu Sans;font-size:10px;font-style:normal;font-weight:normal;text-anchor:middle;" transform="rotate(-0, 138.744153, 322.182437)" x="138.744153" y="322.182437">0.2</text>
     </g>
    </g>
    <g id="xtick_3">
     <g id="line2d_3">
      <g>
       <use style="stroke:#000000;stroke-width:0.8;" x="203.688051" xlink:href="#m33cafdde66" y="307.584"/>
      </g>
     </g>
     <g id="text_3">
      <text style="font-family:DejaVu Sans;font-size:10px;font-style:normal;font-weight:normal;text-anchor:middle;" transform="rotate(-0, 203.688051, 322.182437)" x="203.688051" y="322.182437">0.4</text>
     </g>
    </g>
    <g id="xtick_4">
     <g id="line2d_4">
      <g>
       <use style="stroke:#000000;stroke-width:0.8;" x="268.631949" xlink:href="#m33cafdde66" y="307.584"/>
      </g>
     </g>
     <g id="text_4">
      <text style="font-family:DejaVu Sans;font-size:10px;font-style:normal;font-weight:normal;text-anchor:middle;" transform="rotate(-0, 268.631949, 322.182437)" x="268.631949" y="322.182437">0.6</text>
     </g>
    </g>
    <g id="xtick_5">
     <g id="line2d_5">
      <g>
       <use style="stroke:#000000;stroke-width:0.8;" x="333.575847" xlink:href="#m33cafdde66" y="307.584"/>
      </g>
     </g>
     <g id="text_5">
      <text style="font-family:DejaVu Sans;font-size:10px;font-style:normal;font-weight:normal;text-anchor:middle;" transform="rotate(-0, 333.575847, 322.182437)" x="333.575847" y="322.182437">0.8</text>
     </g>
    </g>
    <g id="xtick_6">
     <g id="line2d_6">
      <g>
       <use style="stroke:#000000;stroke-width:0.8;" x="398.519745" xlink:href="#m33cafdde66" y="307.584"/>
      </g>
     </g>
     <g id="text_6">
      <text style="font-family:DejaVu Sans;font-size:10px;font-style:normal;font-weight:normal;text-anchor:middle;" transform="rotate(-0, 398.519745, 322.182437)" x="398.519745" y="322.182437">1.0</text>
     </g>
    </g>
    <g id="text_7">
     <text style="font-family:DejaVu Sans;font-size:10px;font-style:normal;font-weight:normal;text-anchor:middle;" transform="rotate(-0, 236.16, 335.860562)" x="236.16" y="335.860562">Input Coin's Heads Probability (λ)</text>
    </g>
   </g>
   <g id="matplotlib.axis_2">
    <g id="ytick_1">
     <g id="line2d_7">
      <defs>
       <path d="M 0 0 
L -3.5 0 
" id="m90ea7510f4" style="stroke:#000000;stroke-width:0.8;"/>
      </defs>
      <g>
       <use style="stroke:#000000;stroke-width:0.8;" x="57.6" xlink:href="#m90ea7510f4" y="295.536389"/>
      </g>
     </g>
     <g id="text_8">
      <text style="font-family:DejaVu Sans;font-size:10px;font-style:normal;font-weight:normal;text-anchor:end;" transform="rotate(-0, 50.6, 299.335608)" x="50.6" y="299.335608">0.00</text>
     </g>
    </g>
    <g id="ytick_2">
     <g id="line2d_8">
      <g>
       <use style="stroke:#000000;stroke-width:0.8;" x="57.6" xlink:href="#m90ea7510f4" y="265.29034"/>
      </g>
     </g>
     <g id="text_9">
      <text style="font-family:DejaVu Sans;font-size:10px;font-style:normal;font-weight:normal;text-anchor:end;" transform="rotate(-0, 50.6, 269.089559)" x="50.6" y="269.089559">0.25</text>
     </g>
    </g>
    <g id="ytick_3">
     <g id="line2d_9">
      <g>
       <use style="stroke:#000000;stroke-width:0.8;" x="57.6" xlink:href="#m90ea7510f4" y="235.044292"/>
      </g>
     </g>
     <g id="text_10">
      <text style="font-family:DejaVu Sans;font-size:10px;font-style:normal;font-weight:normal;text-anchor:end;" transform="rotate(-0, 50.6, 238.84351)" x="50.6" y="238.84351">0.50</text>
     </g>
    </g>
    <g id="ytick_4">
     <g id="line2d_10">
      <g>
       <use style="stroke:#000000;stroke-width:0.8;" x="57.6" xlink:href="#m90ea7510f4" y="204.798243"/>
      </g>
     </g>
     <g id="text_11">
      <text style="font-family:DejaVu Sans;font-size:10px;font-style:normal;font-weight:normal;text-anchor:end;" transform="rotate(-0, 50.6, 208.597462)" x="50.6" y="208.597462">0.75</text>
     </g>
    </g>
    <g id="ytick_5">
     <g id="line2d_11">
      <g>
       <use style="stroke:#000000;stroke-width:0.8;" x="57.6" xlink:href="#m90ea7510f4" y="174.552194"/>
      </g>
     </g>
     <g id="text_12">
      <text style="font-family:DejaVu Sans;font-size:10px;font-style:normal;font-weight:normal;text-anchor:end;" transform="rotate(-0, 50.6, 178.351413)" x="50.6" y="178.351413">1.00</text>
     </g>
    </g>
    <g id="ytick_6">
     <g id="line2d_12">
      <g>
       <use style="stroke:#000000;stroke-width:0.8;" x="57.6" xlink:href="#m90ea7510f4" y="144.306146"/>
      </g>
     </g>
     <g id="text_13">
      <text style="font-family:DejaVu Sans;font-size:10px;font-style:normal;font-weight:normal;text-anchor:end;" transform="rotate(-0, 50.6, 148.105365)" x="50.6" y="148.105365">1.25</text>
     </g>
    </g>
    <g id="ytick_7">
     <g id="line2d_13">
      <g>
       <use style="stroke:#000000;stroke-width:0.8;" x="57.6" xlink:href="#m90ea7510f4" y="114.060097"/>
      </g>
     </g>
     <g id="text_14">
      <text style="font-family:DejaVu Sans;font-size:10px;font-style:normal;font-weight:normal;text-anchor:end;" transform="rotate(-0, 50.6, 117.859316)" x="50.6" y="117.859316">1.50</text>
     </g>
    </g>
    <g id="ytick_8">
     <g id="line2d_14">
      <g>
       <use style="stroke:#000000;stroke-width:0.8;" x="57.6" xlink:href="#m90ea7510f4" y="83.814049"/>
      </g>
     </g>
     <g id="text_15">
      <text style="font-family:DejaVu Sans;font-size:10px;font-style:normal;font-weight:normal;text-anchor:end;" transform="rotate(-0, 50.6, 87.613267)" x="50.6" y="87.613267">1.75</text>
     </g>
    </g>
    <g id="ytick_9">
     <g id="line2d_15">
      <g>
       <use style="stroke:#000000;stroke-width:0.8;" x="57.6" xlink:href="#m90ea7510f4" y="53.568"/>
      </g>
     </g>
     <g id="text_16">
      <text style="font-family:DejaVu Sans;font-size:10px;font-style:normal;font-weight:normal;text-anchor:end;" transform="rotate(-0, 50.6, 57.367219)" x="50.6" y="57.367219">2.00</text>
     </g>
    </g>
    <g id="text_17">
     <text style="font-family:DejaVu Sans;font-size:10px;font-style:normal;font-weight:normal;text-anchor:middle;" transform="rotate(-90, 22.254687, 174.528)" x="22.254687" y="174.528">Coin Flips Needed</text>
    </g>
   </g>
   <g id="line2d_16">
    <path clip-path="url(#p3b60d7a999)" d="M 73.832727 295.488 
L 77.112066 290.650553 
L 80.391405 285.908869 
L 83.670744 281.260132 
L 86.950083 276.701636 
L 90.229421 272.230778 
L 93.50876 267.845055 
L 96.788099 263.542059 
L 100.067438 259.31947 
L 103.346777 255.175056 
L 106.626116 251.106665 
L 109.905455 247.112225 
L 113.184793 243.189738 
L 116.464132 239.337276 
L 119.743471 235.552982 
L 123.02281 231.835062 
L 126.302149 228.181784 
L 129.581488 224.591478 
L 132.860826 221.062529 
L 136.140165 217.593378 
L 139.419504 214.182517 
L 142.698843 210.828489 
L 145.978182 207.529887 
L 149.257521 204.285347 
L 152.53686 201.093551 
L 155.816198 197.953223 
L 159.095537 194.863128 
L 162.374876 191.822071 
L 165.654215 188.828894 
L 168.933554 185.882474 
L 172.212893 182.981724 
L 175.492231 180.125591 
L 178.77157 177.313054 
L 182.050909 174.543121 
L 185.330248 171.814832 
L 188.609587 169.127254 
L 191.888926 166.479484 
L 195.168264 163.870643 
L 198.447603 161.299879 
L 201.726942 158.766364 
L 205.006281 156.269295 
L 208.28562 153.807891 
L 211.564959 151.381394 
L 214.844298 148.989065 
L 218.123636 146.630188 
L 221.402975 144.304066 
L 224.682314 142.010023 
L 227.961653 139.747398 
L 231.240992 137.515551 
L 234.520331 135.313859 
L 237.799669 133.141713 
L 241.079008 130.998523 
L 244.358347 128.883715 
L 247.637686 126.796727 
L 250.917025 124.737015 
L 254.196364 122.704048 
L 257.475702 120.697307 
L 260.755041 118.716289 
L 264.03438 116.760501 
L 267.313719 114.829466 
L 270.593058 112.922717 
L 273.872397 111.039797 
L 277.151736 109.180263 
L 280.431074 107.343682 
L 283.710413 105.529632 
L 286.989752 103.7377 
L 290.269091 101.967485 
L 293.54843 100.218594 
L 296.827769 98.490644 
L 300.107107 96.783261 
L 303.386446 95.096081 
L 306.665785 93.428746 
L 309.945124 91.780908 
L 313.224463 90.152229 
L 316.503802 88.542374 
L 319.78314 86.951021 
L 323.062479 85.377851 
L 326.341818 83.822556 
L 329.621157 82.284831 
L 332.900496 80.764381 
L 336.179835 79.260917 
L 339.459174 77.774155 
L 342.738512 76.303819 
L 346.017851 74.849637 
L 349.29719 73.411346 
L 352.576529 71.988686 
L 355.855868 70.581403 
L 359.135207 69.18925 
L 362.414545 67.811985 
L 365.693884 66.449368 
L 368.973223 65.101169 
L 372.252562 63.767158 
L 375.531901 62.447115 
L 378.81124 61.140819 
L 382.090579 59.848059 
L 385.369917 58.568624 
L 388.649256 57.302309 
L 391.928595 56.048914 
L 395.207934 54.808241 
L 398.487273 53.580099 
" style="fill:none;stroke:#1f77b4;stroke-linecap:square;stroke-width:1.5;"/>
   </g>
   <g id="line2d_17">
    <path clip-path="url(#p3b60d7a999)" d="M 73.832727 174.552194 
L 77.112066 173.584321 
L 80.391405 171.890542 
L 83.670744 169.712827 
L 86.950083 170.196763 
L 90.229421 167.051174 
L 93.50876 167.051174 
L 96.788099 162.937712 
L 100.067438 167.535111 
L 103.346777 162.695743 
L 106.626116 161.969838 
L 109.905455 158.824249 
L 113.184793 161.485901 
L 116.464132 161.485901 
L 119.743471 156.404565 
L 123.02281 157.13047 
L 126.302149 152.291103 
L 129.581488 155.67866 
L 132.860826 148.661577 
L 136.140165 153.017008 
L 139.419504 151.323229 
L 142.698843 150.113387 
L 145.978182 148.661577 
L 149.257521 142.12843 
L 152.53686 147.451735 
L 155.816198 142.370399 
L 159.095537 138.982841 
L 162.374876 143.822209 
L 165.654215 140.434652 
L 168.933554 141.160557 
L 172.212893 136.805126 
L 175.492231 135.353315 
L 178.77157 137.047094 
L 182.050909 129.788042 
L 185.330248 132.691663 
L 188.609587 132.691663 
L 191.888926 128.578201 
L 195.168264 129.062137 
L 198.447603 126.884422 
L 201.726942 127.12639 
L 205.006281 129.062137 
L 208.28562 127.852295 
L 211.564959 121.803086 
L 214.844298 121.319149 
L 218.123636 123.496864 
L 221.402975 119.62537 
L 224.682314 119.141433 
L 227.961653 116.237813 
L 231.240992 110.914508 
L 234.520331 115.269939 
L 237.799669 111.156477 
L 241.079008 115.269939 
L 244.358347 111.398445 
L 247.637686 113.57616 
L 250.917025 111.156477 
L 254.196364 106.801046 
L 257.475702 107.284982 
L 260.755041 101.235773 
L 264.03438 100.751836 
L 267.313719 102.687583 
L 270.593058 94.702626 
L 273.872397 98.816089 
L 277.151736 96.880342 
L 280.431074 95.428531 
L 283.710413 93.250816 
L 286.989752 95.428531 
L 290.269091 98.332152 
L 293.54843 92.766879 
L 296.827769 88.653416 
L 300.107107 91.315069 
L 303.386446 88.411448 
L 306.665785 85.507827 
L 309.945124 87.201606 
L 313.224463 86.717669 
L 316.503802 88.895385 
L 319.78314 84.297985 
L 323.062479 82.12027 
L 326.341818 83.088143 
L 329.621157 80.66846 
L 332.900496 75.829092 
L 336.179835 77.764839 
L 339.459174 75.829092 
L 342.738512 69.779882 
L 346.017851 76.07106 
L 349.29719 73.167439 
L 352.576529 71.957598 
L 355.855868 67.11823 
L 359.135207 66.634293 
L 362.414545 69.053977 
L 365.693884 64.698546 
L 368.973223 62.278862 
L 372.252562 65.424451 
L 375.531901 60.101146 
L 378.81124 61.310988 
L 382.090579 60.827052 
L 385.369917 59.375241 
L 388.649256 56.229652 
L 391.928595 56.471621 
L 395.207934 55.01981 
L 398.487273 53.568 
" style="fill:none;stroke:#ff7f0e;stroke-linecap:square;stroke-width:1.5;"/>
   </g>
   <g id="patch_3">
    <path d="M 57.6 307.584 
L 57.6 41.472 
" style="fill:none;stroke:#000000;stroke-linecap:square;stroke-linejoin:miter;stroke-width:0.8;"/>
   </g>
   <g id="patch_4">
    <path d="M 414.72 307.584 
L 414.72 41.472 
" style="fill:none;stroke:#000000;stroke-linecap:square;stroke-linejoin:miter;stroke-width:0.8;"/>
   </g>
   <g id="patch_5">
    <path d="M 57.6 307.584 
L 414.72 307.584 
" style="fill:none;stroke:#000000;stroke-linecap:square;stroke-linejoin:miter;stroke-width:0.8;"/>
   </g>
   <g id="patch_6">
    <path d="M 57.6 41.472 
L 414.72 41.472 
" style="fill:none;stroke:#000000;stroke-linecap:square;stroke-linejoin:miter;stroke-width:0.8;"/>
   </g>
   <g id="text_18">
    <text style="font-family:DejaVu Sans;font-size:12px;font-style:normal;font-weight:normal;text-anchor:middle;" transform="rotate(-0, 236.16, 35.472)" x="236.16" y="35.472">Coin Flips for pow(x,2/1)</text>
   </g>
   <g id="legend_1">
    <g id="patch_7">
     <path d="M 64.6 78.82825 
L 245.404687 78.82825 
Q 247.404687 78.82825 247.404687 76.82825 
L 247.404687 48.472 
Q 247.404687 46.472 245.404687 46.472 
L 64.6 46.472 
Q 62.6 46.472 62.6 48.472 
L 62.6 76.82825 
Q 62.6 78.82825 64.6 78.82825 
z
" style="fill:#ffffff;opacity:0.8;stroke:#cccccc;stroke-linejoin:miter;"/>
    </g>
    <g id="line2d_18">
     <path d="M 66.6 54.570437 
L 86.6 54.570437 
" style="fill:none;stroke:#1f77b4;stroke-linecap:square;stroke-width:1.5;"/>
    </g>
    <g id="line2d_19"/>
    <g id="text_19">
     <text style="font-family:DejaVu Sans;font-size:10px;font-style:normal;font-weight:normal;text-anchor:start;" transform="rotate(-0, 94.6, 58.070437)" x="94.6" y="58.070437">Coin Flip Lower Bound</text>
    </g>
    <g id="line2d_20">
     <path d="M 66.6 69.248562 
L 86.6 69.248562 
" style="fill:none;stroke:#ff7f0e;stroke-linecap:square;stroke-width:1.5;"/>
    </g>
    <g id="line2d_21"/>
    <g id="text_20">
     <text style="font-family:DejaVu Sans;font-size:10px;font-style:normal;font-weight:normal;text-anchor:start;" transform="rotate(-0, 94.6, 72.748562)" x="94.6" y="72.748562">Avg. Coins Flipped pow(x,2/1)</text>
    </g>
   </g>
  </g>
 </g>
 <defs>
  <clipPath id="p3b60d7a999">
   <rect height="266.112" width="357.12" x="57.6" y="41.472"/>
  </clipPath>
 </defs>
</svg>

<svg height="460.8" viewBox="0 0 460.8 345.6" width="614.4" xmlns="http://www.w3.org/2000/svg" xmlns:xlink="http://www.w3.org/1999/xlink"><defs><style>*{stroke-linecap:butt;stroke-linejoin:round}</style></defs><g id="figure_1"><path d="M0 345.6h460.8V0H0z" fill="#fff" id="patch_1"/><g id="axes_1"><path d="M57.6 307.584h357.12V41.472H57.6z" fill="#fff" id="patch_2"/><g id="matplotlib.axis_1"><g id="xtick_1"><g id="line2d_1"><defs><path d="M0 0v3.5" id="m33cafdde66" stroke="#000" stroke-width=".8"/></defs><use x="73.8" xlink:href="#m33cafdde66" y="307.584" stroke="#000" stroke-width=".8"/></g><text x="73.8" y="322.182" font-family="DejaVu Sans" font-size="10" font-weight="400" text-anchor="middle" id="text_1">0.0</text></g><g id="xtick_2"><use x="138.744" xlink:href="#m33cafdde66" y="307.584" stroke="#000" stroke-width=".8" id="line2d_2"/><text x="138.744" y="322.182" font-family="DejaVu Sans" font-size="10" font-weight="400" text-anchor="middle" id="text_2">0.2</text></g><g id="xtick_3"><use x="203.688" xlink:href="#m33cafdde66" y="307.584" stroke="#000" stroke-width=".8" id="line2d_3"/><text x="203.688" y="322.182" font-family="DejaVu Sans" font-size="10" font-weight="400" text-anchor="middle" id="text_3">0.4</text></g><g id="xtick_4"><use x="268.632" xlink:href="#m33cafdde66" y="307.584" stroke="#000" stroke-width=".8" id="line2d_4"/><text x="268.632" y="322.182" font-family="DejaVu Sans" font-size="10" font-weight="400" text-anchor="middle" id="text_4">0.6</text></g><g id="xtick_5"><use x="333.576" xlink:href="#m33cafdde66" y="307.584" stroke="#000" stroke-width=".8" id="line2d_5"/><text x="333.576" y="322.182" font-family="DejaVu Sans" font-size="10" font-weight="400" text-anchor="middle" id="text_5">0.8</text></g><g id="xtick_6"><use x="398.52" xlink:href="#m33cafdde66" y="307.584" stroke="#000" stroke-width=".8" id="line2d_6"/><text x="398.52" y="322.182" font-family="DejaVu Sans" font-size="10" font-weight="400" text-anchor="middle" id="text_6">1.0</text></g><text x="236.16" y="335.861" font-family="DejaVu Sans" font-size="10" font-weight="400" text-anchor="middle" id="text_7">Input Coin&apos;s Heads Probability (λ)</text></g><g id="matplotlib.axis_2"><g id="ytick_1"><g id="line2d_7"><defs><path d="M0 0h-3.5" id="m90ea7510f4" stroke="#000" stroke-width=".8"/></defs><use x="57.6" xlink:href="#m90ea7510f4" y="295.536" stroke="#000" stroke-width=".8"/></g><text x="50.6" y="299.336" font-family="DejaVu Sans" font-size="10" font-weight="400" text-anchor="end" id="text_8">0.00</text></g><g id="ytick_2"><use x="57.6" xlink:href="#m90ea7510f4" y="265.29" stroke="#000" stroke-width=".8" id="line2d_8"/><text x="50.6" y="269.09" font-family="DejaVu Sans" font-size="10" font-weight="400" text-anchor="end" id="text_9">0.25</text></g><g id="ytick_3"><use x="57.6" xlink:href="#m90ea7510f4" y="235.044" stroke="#000" stroke-width=".8" id="line2d_9"/><text x="50.6" y="238.844" font-family="DejaVu Sans" font-size="10" font-weight="400" text-anchor="end" id="text_10">0.50</text></g><g id="ytick_4"><use x="57.6" xlink:href="#m90ea7510f4" y="204.798" stroke="#000" stroke-width=".8" id="line2d_10"/><text x="50.6" y="208.597" font-family="DejaVu Sans" font-size="10" font-weight="400" text-anchor="end" id="text_11">0.75</text></g><g id="ytick_5"><use x="57.6" xlink:href="#m90ea7510f4" y="174.552" stroke="#000" stroke-width=".8" id="line2d_11"/><text x="50.6" y="178.351" font-family="DejaVu Sans" font-size="10" font-weight="400" text-anchor="end" id="text_12">1.00</text></g><g id="ytick_6"><use x="57.6" xlink:href="#m90ea7510f4" y="144.306" stroke="#000" stroke-width=".8" id="line2d_12"/><text x="50.6" y="148.105" font-family="DejaVu Sans" font-size="10" font-weight="400" text-anchor="end" id="text_13">1.25</text></g><g id="ytick_7"><use x="57.6" xlink:href="#m90ea7510f4" y="114.06" stroke="#000" stroke-width=".8" id="line2d_13"/><text x="50.6" y="117.859" font-family="DejaVu Sans" font-size="10" font-weight="400" text-anchor="end" id="text_14">1.50</text></g><g id="ytick_8"><use x="57.6" xlink:href="#m90ea7510f4" y="83.814" stroke="#000" stroke-width=".8" id="line2d_14"/><text x="50.6" y="87.613" font-family="DejaVu Sans" font-size="10" font-weight="400" text-anchor="end" id="text_15">1.75</text></g><g id="ytick_9"><use x="57.6" xlink:href="#m90ea7510f4" y="53.568" stroke="#000" stroke-width=".8" id="line2d_15"/><text x="50.6" y="57.367" font-family="DejaVu Sans" font-size="10" font-weight="400" text-anchor="end" id="text_16">2.00</text></g><text transform="rotate(-90 22.255 174.528)" x="22.255" y="174.528" font-family="DejaVu Sans" font-size="10" font-weight="400" text-anchor="middle" id="text_17">Coin Flips Needed</text></g><path clip-path="url(#p3b60d7a999)" d="M73.833 295.488l3.28-4.837 3.278-4.742 3.28-4.649 3.28-4.558 3.278-4.471 3.28-4.386 3.28-4.303 3.278-4.223 3.28-4.144 3.28-4.068 3.278-3.995 3.28-3.922 3.28-3.853 3.278-3.784 3.28-3.718 3.28-3.653 3.278-3.59 3.28-3.53 3.28-3.469 3.279-3.41 3.279-3.355 3.28-3.298 3.279-3.245 3.279-3.191 3.28-3.14 3.279-3.09 3.279-3.042 3.28-2.993 3.279-2.947 3.279-2.9 3.28-2.856 3.279-2.813 3.279-2.77 3.28-2.728 3.279-2.688 3.279-2.648 3.28-2.608 3.279-2.571 3.279-2.534 3.28-2.497 3.279-2.461 3.279-2.427 3.28-2.392 3.279-2.359 3.279-2.326 3.28-2.294 3.279-2.263 3.279-2.231 3.28-2.202 3.279-2.172 3.279-2.143 3.28-2.115 3.279-2.087 3.279-2.06 3.28-2.033 3.279-2.007 3.279-1.98 3.28-1.956 3.279-1.932 3.28-1.906 3.278-1.883 3.28-1.86 3.28-1.836 3.278-1.814 3.28-1.792 3.28-1.77 3.278-1.75 3.28-1.727 3.28-1.708 3.278-1.687 3.28-1.667 3.28-1.648 3.278-1.629 3.28-1.61 3.28-1.591 3.278-1.573 3.28-1.555 3.28-1.538 3.278-1.52 3.28-1.504 3.28-1.487 3.279-1.47 3.279-1.454 3.28-1.439 3.279-1.422 3.279-1.408 3.28-1.392 3.279-1.377 3.279-1.363 3.28-1.348 3.279-1.334 3.279-1.32 3.28-1.306 3.279-1.293 3.279-1.28 3.28-1.266 3.279-1.253 3.279-1.24 3.28-1.229" fill="none" stroke="#1f77b4" stroke-linecap="square" stroke-width="1.5" id="line2d_16"/><path clip-path="url(#p3b60d7a999)" d="M73.833 174.552l3.28-.968 3.278-1.693 3.28-2.178 3.28.484 3.278-3.146h3.28l3.28-4.113 3.278 4.597 3.28-4.84 3.28-.725 3.278-3.146 3.28 2.662h3.28l3.278-5.081 3.28.725 3.28-4.839 3.278 3.388 3.28-7.017 3.28 4.355 3.279-1.694 3.279-1.21 3.28-1.451 3.279-6.534 3.279 5.324 3.28-5.082 3.279-3.387 3.279 4.84 3.28-3.388 3.279.726 3.279-4.356 3.28-1.452 3.279 1.694 3.279-7.259 3.28 2.904h3.279l3.279-4.114 3.28.484 3.279-2.178 3.279.242 3.28 1.936 3.279-1.21 3.279-6.049 3.28-.484 3.279 2.178 3.279-3.872 3.28-.484 3.279-2.903 3.279-5.323 3.28 4.355 3.279-4.114 3.279 4.114 3.28-3.872 3.279 2.178 3.279-2.42 3.28-4.355 3.279.484 3.279-6.05 3.28-.483 3.279 1.936 3.28-7.985 3.278 4.113 3.28-1.936 3.28-1.451 3.278-2.178 3.28 2.178 3.28 2.903 3.278-5.565 3.28-4.114 3.28 2.662 3.278-2.904 3.28-2.903 3.28 1.694 3.278-.484 3.28 2.177 3.28-4.597 3.278-2.178 3.28.968 3.28-2.42 3.278-4.839 3.28 1.936 3.28-1.936 3.279-6.05 3.279 6.292 3.28-2.904 3.279-1.21 3.279-4.839 3.28-.484 3.279 2.42 3.279-4.355 3.28-2.42 3.279 3.145 3.279-5.323 3.28 1.21 3.279-.484 3.279-1.452 3.28-3.145 3.279.242 3.279-1.452 3.28-1.452" fill="none" stroke="#ff7f0e" stroke-linecap="square" stroke-width="1.5" id="line2d_17"/><path d="M57.6 307.584V41.472" fill="none" stroke="#000" stroke-linecap="square" stroke-width=".8" id="patch_3"/><path d="M414.72 307.584V41.472" fill="none" stroke="#000" stroke-linecap="square" stroke-width=".8" id="patch_4"/><path d="M57.6 307.584h357.12" fill="none" stroke="#000" stroke-linecap="square" stroke-width=".8" id="patch_5"/><path d="M57.6 41.472h357.12" fill="none" stroke="#000" stroke-linecap="square" stroke-width=".8" id="patch_6"/><text x="236.16" y="35.472" font-family="DejaVu Sans" font-size="12" font-weight="400" text-anchor="middle" id="text_18">Coin Flips for pow(x,2/1)</text><g id="legend_1"><path d="M64.6 78.828h180.805q2 0 2-2V48.472q0-2-2-2H64.6q-2 0-2 2v28.356q0 2 2 2z" fill="#fff" opacity=".8" stroke="#ccc" id="patch_7"/><path d="M66.6 54.57h20" fill="none" stroke="#1f77b4" stroke-linecap="square" stroke-width="1.5" id="line2d_18"/><text x="94.6" y="58.07" font-family="DejaVu Sans" font-size="10" font-weight="400" id="text_19">Coin Flip Lower Bound</text><path d="M66.6 69.249h20" fill="none" stroke="#ff7f0e" stroke-linecap="square" stroke-width="1.5" id="line2d_20"/><text x="94.6" y="72.749" font-family="DejaVu Sans" font-size="10" font-weight="400" id="text_20">Avg. Coins Flipped pow(x,2/1)</text></g></g></g><defs><clipPath id="p3b60d7a999"><path d="M57.6 41.472h357.12v266.112H57.6z"/></clipPath></defs></svg>
